img/social-icons/twitter.svg

<svg width="28" height="28" viewBox="0 0 28 28" fill="none" xmlns="http://www.w3.org/2000/svg">
<path d="M22.1667 0H5.83333C2.61217 0 0 2.61217 0 5.83333V22.1667C0 25.3878 2.61217 28 5.83333 28H22.1667C25.389 28 28 25.3878 28 22.1667V5.83333C28 2.61217 25.389 0 22.1667 0ZM22.0045 10.7765C22.2483 16.163 18.2315 22.169 11.1195 22.169C8.9565 22.169 6.944 21.5355 5.24883 20.4482C7.28117 20.6873 9.30883 20.1238 10.9188 18.8627C9.24233 18.8312 7.82833 17.724 7.34183 16.2027C7.94267 16.317 8.533 16.2832 9.07083 16.1373C7.22867 15.7675 5.95817 14.1085 5.999 12.334C6.51467 12.621 7.10617 12.7937 7.73267 12.8135C6.02817 11.6737 5.54517 9.422 6.54733 7.7C8.43617 10.017 11.2583 11.5418 14.441 11.7017C13.8822 9.3065 15.701 7 18.1732 7C19.2733 7 20.2697 7.46433 20.9673 8.20983C21.84 8.03833 22.6602 7.71983 23.401 7.28117C23.114 8.176 22.5073 8.92617 21.7175 9.39983C22.4922 9.3065 23.2307 9.10117 23.9167 8.79667C23.4045 9.562 22.7547 10.2363 22.0045 10.7765Z" fill="#FAFAFA"/>
</svg>

<svg width="28" height="28" fill="none" xmlns="http://www.w3.org/2000/svg"><path d="M22.167 0H5.833A5.834 5.834 0 000 5.833v16.334A5.834 5.834 0 005.833 28h16.334A5.833 5.833 0 0028 22.167V5.833A5.833 5.833 0 0022.167 0zm-.163 10.777c.244 5.386-3.773 11.392-10.885 11.392-2.162 0-4.175-.634-5.87-1.72a7.706 7.706 0 005.67-1.586 3.833 3.833 0 01-3.577-2.66c.6.114 1.191.08 1.729-.066-1.842-.37-3.113-2.029-3.072-3.803a3.81 3.81 0 001.734.48A3.837 3.837 0 016.547 7.7a10.874 10.874 0 007.894 4.002C13.882 9.306 15.701 7 18.173 7c1.1 0 2.097.464 2.794 1.21a7.68 7.68 0 002.434-.929A3.846 3.846 0 0121.718 9.4a7.674 7.674 0 002.199-.603 7.77 7.77 0 01-1.913 1.98z" fill="#FAFAFA"/></svg>
